assets/svg/social/github.svg

<svg width="24" height="24" viewBox="0 0 24 24" fill="none" xmlns="http://www.w3.org/2000/svg">
<path fill-rule="evenodd" clip-rule="evenodd" d="M12 0C5.37308 0 0 5.50947 0 12.3046C0 17.7407 3.43766 22.3537 8.20666 23.9796C8.80676 24.0937 9.02732 23.7127 9.02732 23.3867C9.02732 23.0933 9.0154 22.1234 9.01143 21.0965C5.67114 21.8402 4.96771 19.6458 4.96771 19.6458C4.42126 18.2236 3.63636 17.8446 3.63636 17.8446C2.54744 17.0806 3.71783 17.0969 3.71783 17.0969C4.92201 17.1845 5.55787 18.3642 5.55787 18.3642C6.62891 20.2448 8.36562 19.7008 9.04918 19.3871C9.15648 18.5924 9.46846 18.0484 9.81023 17.7407C7.14555 17.429 4.34377 16.3736 4.34377 11.6608C4.34377 10.318 4.81272 9.2198 5.57973 8.35793C5.45455 8.04822 5.04521 6.79718 5.69498 5.10196C5.69498 5.10196 6.70243 4.77188 8.99553 6.36319C9.9533 6.09016 10.9786 5.95365 12 5.94957C13.0194 5.95365 14.0467 6.09016 15.0065 6.36319C17.2976 4.77188 18.303 5.10196 18.303 5.10196C18.9568 6.79718 18.5455 8.04822 18.4203 8.35793C19.1893 9.2198 19.6542 10.318 19.6542 11.6608C19.6542 16.3858 16.8465 17.427 14.1759 17.7326C14.6071 18.1136 14.9906 18.8634 14.9906 20.0105C14.9906 21.6569 14.9767 22.9812 14.9767 23.3867C14.9767 23.7148 15.1932 24.0978 15.8013 23.9776C20.5663 22.3496 24 17.7387 24 12.3046C24 5.50947 18.6269 0 12 0Z" fill="currentColor"/>
<path d="M4.54455 17.6653C4.51872 17.7265 4.42334 17.7448 4.33789 17.702C4.25046 17.6613 4.20277 17.5777 4.23059 17.5166C4.25642 17.4534 4.34981 17.4371 4.43725 17.4779C4.52468 17.5207 4.57435 17.6042 4.54455 17.6653Z" fill="currentColor"/>
<path d="M5.03139 18.2216C4.97376 18.2766 4.86249 18.2501 4.78698 18.1645C4.7075 18.0789 4.69359 17.9648 4.75121 17.9098C4.81082 17.8548 4.91813 17.8813 4.99761 17.9669C5.0751 18.0524 5.091 18.1665 5.03139 18.2216Z" fill="currentColor"/>
<path d="M5.50423 18.9306C5.43071 18.9836 5.30949 18.9347 5.23597 18.8247C5.16245 18.7147 5.16245 18.5843 5.23796 18.5313C5.31148 18.4783 5.43071 18.5252 5.50622 18.6352C5.57974 18.7452 5.57974 18.8777 5.50423 18.9306Z" fill="currentColor"/>
<path d="M6.15203 19.6153C6.08645 19.6906 5.94537 19.6703 5.84403 19.5684C5.73872 19.4686 5.7109 19.328 5.77647 19.2546C5.84403 19.1792 5.98313 19.2016 6.08645 19.3015C6.18978 19.3993 6.22158 19.5419 6.15203 19.6153Z" fill="currentColor"/>
<path d="M7.04611 20.0126C7.0163 20.1083 6.88118 20.1532 6.74605 20.1124C6.61093 20.0696 6.52151 19.9576 6.54933 19.8598C6.57715 19.762 6.71227 19.7171 6.84938 19.7599C6.98649 19.8027 7.07392 19.9148 7.04611 20.0126Z" fill="currentColor"/>
<path d="M8.02777 20.0859C8.03175 20.1878 7.91649 20.2713 7.77343 20.2734C7.63036 20.2774 7.51312 20.1939 7.51312 20.0941C7.51312 19.9922 7.62638 19.9086 7.76945 19.9066C7.91053 19.9046 8.02777 19.9861 8.02777 20.0859Z" fill="currentColor"/>
<path d="M8.94189 19.927C8.95978 20.0268 8.86042 20.1267 8.71735 20.1552C8.57826 20.1817 8.4491 20.1206 8.43121 20.0228C8.41333 19.9209 8.51467 19.819 8.65377 19.7925C8.79684 19.766 8.92401 19.8272 8.94189 19.927Z" fill="currentColor"/>
</svg>

<svg viewBox="0 0 24 24" fill="none" xmlns="http://www.w3.org/2000/svg">
    <path fill-rule="evenodd" clip-rule="evenodd" d="M12 0C5.373 0 0 5.51 0 12.305 0 17.74 3.438 22.354 8.207 23.98c.6.114.82-.267.82-.593 0-.294-.012-1.264-.016-2.29-3.34.743-4.043-1.451-4.043-1.451-.547-1.422-1.332-1.801-1.332-1.801-1.089-.764.082-.748.082-.748 1.204.087 1.84 1.267 1.84 1.267 1.07 1.88 2.808 1.337 3.491 1.023.107-.795.42-1.339.761-1.646-2.664-.312-5.466-1.367-5.466-6.08 0-1.343.469-2.441 1.236-3.303-.125-.31-.535-1.56.115-3.256 0 0 1.007-.33 3.3 1.261a11.16 11.16 0 016.012 0c2.29-1.591 3.296-1.261 3.296-1.261.654 1.695.242 2.946.117 3.256.77.862 1.234 1.96 1.234 3.303 0 4.725-2.808 5.766-5.478 6.072.431.38.815 1.13.815 2.277 0 1.647-.014 2.971-.014 3.377 0 .328.216.71.824.59C20.566 22.35 24 17.74 24 12.306 24 5.509 18.627 0 12 0z" fill="currentColor"/>
    <path d="M4.545 17.665c-.026.062-.122.08-.207.037-.088-.04-.135-.124-.107-.185.025-.064.119-.08.206-.04.088.044.137.127.108.188zm.486.557c-.057.055-.169.028-.244-.058-.08-.085-.093-.2-.036-.254.06-.055.167-.029.247.057.077.085.093.2.033.255zm.473.708c-.073.054-.195.005-.268-.105-.074-.11-.074-.24.002-.294.073-.053.193-.006.268.104.074.11.074.243-.002.296zm.648.685c-.066.076-.207.055-.308-.047-.105-.1-.133-.24-.068-.313.068-.076.207-.053.31.047.104.097.136.24.066.313zm.894.398c-.03.095-.165.14-.3.1-.135-.043-.224-.155-.197-.253.028-.098.163-.143.3-.1.137.043.225.155.197.253zm.982.073c.004.102-.112.185-.255.187-.143.004-.26-.08-.26-.179 0-.102.113-.185.256-.187.142-.002.259.08.259.179zm.914-.159c.018.1-.082.2-.225.228-.139.027-.268-.034-.286-.132-.018-.102.084-.204.223-.23.143-.027.27.034.288.134z" fill="currentColor"/>
</svg>
